X:1
T:All over the World
T:William James Kirkpatrick
T:All over the World
T:Public Domain, 
T:Public Domain, 
C:William James Kirkpatrick
Z:Public Domain,
%%score ( 1 2 ) ( 3 4 )
L:1/8
M:6/8
K:A
V:1 treble 
V:2 treble 
V:3 bass 
V:4 bass 
V:1
 [CE]>[CE][CE] [CE][Cc][A,C] | [CE]>[CE][CE] [CE]3 | [DF]>[DF][DF] [DF][DB][DA] | %3
w: 1.~Bear the good tid- ings all|o- ver the world,|Let the bright ban- ner of|
w: 2.~Plant in the wil- der- ness|Shar- on’s sweet rose,|Bless- ing will fol- low wher-|
w: 3.~Think of the mil- lions who|nev- er have heard|One pre- cious prom- ise from|
w: 4.~Oh, what a song shall in|Heav- en be sung!|By ev- ery na- tion and|
 [DG][DG][DF] [DG]3 | [CE]>[CE][CE] [CE][Ec][CA] | [EG]>[DF][DF] [DF]3 | %6
w: love be un- furled,|Wher- ev- er sor- row and|sin shall be found,|
w: ev- er it goes;|Led, on- ward led by the|Lord’s guid- ing hand,|
w: God’s ho- ly Word;|Think of the lives marred and|dark- ened by sin,|
w: kin- dred and tongue;|Some may be there through our|ef- forts and prayer,|
 [Fd]>[Fd][Fd] [Fd][Fc][FB] | [EA][EB][EG] [EA]3 ||"^Refrain" (G>GG) [EG]AB | (E>EE [EA]3) | %10
w: There let the news of sal-|va- tion re- sound.|||
w: O- pen “fresh springs” in the|dry, thirst- y land.|All * * o- ver the|All * * *|
w: Tell them the sto- ry that|brings light with- in.|||
w: Joy ev- er- last- ing to-|ge- ther we’ll share.|||
 (A>AA) [EA][EB][Ac] | (G>GG [GB]3) | [Ec]>[Ec][Ec] [Ec][EB][EA] | [EG]>[DF][DF] [Fd]3 | %14
w: ||||
w: * * * ver the world,|the * * *|ban- ner of love be un-|furled, All over the|
w: ||||
w: ||||
 ([Ec]3 [DB])[CA][DB] | [CA]6 x |] %16
w: ||
w: world. * * *||
w: ||
w: ||
V:2
 x6 | x6 | x6 | x6 | x6 | x6 | x6 | x6 || e3 x3 | A3- x3 | e3 x3 | B3- x3 | x6 | x6 | x6 | x7 |] %16
w: ||||||||||||||||
w: ||||||||world,|o-|Let|bright|||||
V:3
 [A,,A,]>[A,,A,][A,,A,] [A,,A,][A,,E,][A,,E,] | [A,,A,]>[A,,B,][A,,B,] [A,,B,]3 | %2
 [D,A,]>[D,A,][D,A,] [D,A,][D,F,][D,B,] | [E,B,][E,B,][E,B,] [E,B,]3 | %4
 [A,,A,]>[A,,A,][A,,A,] [A,,A,][A,,A,][A,,A,] | [D,A,]>[D,A,][D,A,] [D,A,]3 | %6
 [B,,B,]>[B,,B,][B,,B,] [B,,B,][C,^A,][C,B,] | [E,C][E,D][E,B,] [A,,C]3 || (E,>E,E,) [E,B,]CD | %9
 (A,,>C,E, [A,C]3) | (C>CC) [A,C][G,D][A,E] | (E,>E,E, [E,E]3) | A,>A,A, [A,,A,][B,,G,][C,A,] | %13
 [D,A,]>[D,A,][D,A,] [D,A,]3 | ([E,A,]>[E,A,][E,A,]) [E,G,] z z | %15
 ([A,,A,]>[A,,G,][A,,F,] [A,,E,]4) |] %16
V:4
 x6 | x6 | x6 | x6 | x6 | x6 | x6 | x6 || B,3 x3 | C3- x3 | E3 x3 | E3- x3 | A,>A,A, x3 | x6 | x6 | %15
 x7 |] %16

